configs/network-logos/garnet.svg

<svg width="82" height="24" viewBox="0 0 82 24" fill="none" xmlns="http://www.w3.org/2000/svg">
<g clip-path="url(#clip0_11396_21061)">
<path d="M35.8506 12.1252H39.3404V14.8611C39.3404 16.2431 38.2237 17.3878 36.8278 17.3878H35.711C34.3291 17.3878 33.1984 16.2431 33.1984 14.8611V10.129C33.1984 8.73307 34.3291 7.61633 35.711 7.61633H36.8278C38.2237 7.61633 39.3404 8.73307 39.3404 10.129V10.8967H37.9445V10.129C37.9445 9.50082 37.4559 9.01225 36.8278 9.01225H35.711C35.0829 9.01225 34.5943 9.51478 34.5943 10.129V14.8611C34.5943 15.4754 35.0968 15.9779 35.711 15.9779H36.8278C37.442 15.9779 37.9445 15.4754 37.9445 14.8611V13.5211H35.8506V12.1252ZM42.9644 17.3878H41.5685V14.1771L43.9415 7.61633H45.3375L47.7105 14.1771V17.3878H46.3146V15.1264H42.9644V17.3878ZM43.2157 13.7305H46.0633L44.6535 9.82189H44.6255L43.2157 13.7305ZM56.0804 17.3878H54.5449L52.7721 13.4792H51.3343V17.3878H49.9384V7.61633H53.5677C54.9637 7.61633 56.0804 8.73307 56.0804 10.129V10.9665C56.0804 12.1251 55.3127 13.0883 54.2518 13.3815L56.0804 17.3878ZM51.3343 12.0833H53.5677C54.1959 12.0833 54.6845 11.5947 54.6845 10.9665V10.129C54.6845 9.50082 54.1959 9.01225 53.5677 9.01225H51.3343V12.0833ZM63.0546 7.61633H64.4505V17.3878H62.4264L59.7044 9.96148V17.3878H58.3085V7.61633H60.3326L63.0546 15.0426V7.61633ZM72.8207 7.61633V9.01225H68.0745V11.5668H72.2623V12.9627H68.0745V15.9918H72.8207V17.3878H66.6786V7.61633H72.8207ZM75.0487 7.61633H81.1908V9.01225H78.8177V17.3878H77.4218V9.01225H75.0487V7.61633Z" fill="#101112"/>
<path d="M6 3V6H9V3H6Z" fill="#A91F2F" fill-opacity="0.5"/>
<path d="M3 3V6H6V3H3Z" fill="#A91F2F" fill-opacity="0.5"/>
<path d="M6 6V9H9V6H6Z" fill="#A91F2F"/>
<path d="M9 6V9H12V6H9Z" fill="#A91F2F"/>
<path d="M12 6V9H15V6H12Z" fill="#A91F2F"/>
<path d="M15 6V9H18V6H15Z" fill="#A91F2F"/>
<path d="M6 9V12H9V9H6Z" fill="#A91F2F"/>
<path d="M15 9V12H18V9H15Z" fill="#A91F2F"/>
<path d="M6 12V15H9V12H6Z" fill="#A91F2F"/>
<path d="M15 12V15H18V12H15Z" fill="#A91F2F"/>
<path d="M6 15V18H9V15H6Z" fill="#A91F2F"/>
<path d="M15 15V18H18V15H15Z" fill="#A91F2F"/>
<path d="M12 15V18H15V15H12Z" fill="#A91F2F"/>
<path d="M9 15V18H12V15H9Z" fill="#A91F2F"/>
<path d="M3 6V9H6V6H3Z" fill="#A91F2F" fill-opacity="0.5"/>
<path d="M12 3V6H15V3H12Z" fill="#A91F2F" fill-opacity="0.5"/>
<path d="M15 3V6H18V3H15Z" fill="#A91F2F" fill-opacity="0.5"/>
<path d="M18 3V6H21V3H18Z" fill="#A91F2F" fill-opacity="0.5"/>
<path d="M9 3V6H12V3H9Z" fill="#A91F2F" fill-opacity="0.5"/>
<path d="M6 24V21H9V24H6Z" fill="#A91F2F" fill-opacity="0.25"/>
<path d="M6 3V0H9V3H6Z" fill="#A91F2F" fill-opacity="0.25"/>
<path d="M12 24V21H15V24H12Z" fill="#A91F2F" fill-opacity="0.25"/>
<path d="M12 3V0H15V3H12Z" fill="#A91F2F" fill-opacity="0.25"/>
<path d="M12 21V18H15V21H12Z" fill="#A91F2F" fill-opacity="0.5"/>
<path d="M15 21V18H18V21H15Z" fill="#A91F2F" fill-opacity="0.5"/>
<path d="M9 24V21H12V24H9Z" fill="#A91F2F" fill-opacity="0.25"/>
<path d="M9 3V0H12V3H9Z" fill="#A91F2F" fill-opacity="0.25"/>
<path d="M15 24V21H18V24H15Z" fill="#A91F2F" fill-opacity="0.25"/>
<path d="M15 3V0H18V3H15Z" fill="#A91F2F" fill-opacity="0.25"/>
<path d="M9 21V18H12V21H9Z" fill="#A91F2F" fill-opacity="0.5"/>
<path d="M6 21V18H9V21H6Z" fill="#A91F2F" fill-opacity="0.5"/>
<path d="M0 9H3V12H0V9Z" fill="#A91F2F" fill-opacity="0.25"/>
<path d="M0 6H3V9H0V6Z" fill="#A91F2F" fill-opacity="0.25"/>
<path d="M3 12H6V15H3V12Z" fill="#A91F2F" fill-opacity="0.5"/>
<path d="M3 15H6V18H3V15Z" fill="#A91F2F" fill-opacity="0.5"/>
<path d="M3 18H6V21H3V18Z" fill="#A91F2F" fill-opacity="0.5"/>
<path d="M0 12H3V15H0V12Z" fill="#A91F2F" fill-opacity="0.25"/>
<path d="M0 15H3V18H0V15Z" fill="#A91F2F" fill-opacity="0.25"/>
<path d="M3 9H6V12H3V9Z" fill="#A91F2F" fill-opacity="0.5"/>
<path d="M24 6H21V9H24V6Z" fill="#A91F2F" fill-opacity="0.25"/>
<path d="M24 12H21V15H24V12Z" fill="#A91F2F" fill-opacity="0.25"/>
<path d="M21 6H18V9H21V6Z" fill="#A91F2F" fill-opacity="0.5"/>
<path d="M21 12H18V15H21V12Z" fill="#A91F2F" fill-opacity="0.5"/>
<path d="M21 15H18V18H21V15Z" fill="#A91F2F" fill-opacity="0.5"/>
<path d="M21 18H18V21H21V18Z" fill="#A91F2F" fill-opacity="0.5"/>
<path d="M24 9H21V12H24V9Z" fill="#A91F2F" fill-opacity="0.25"/>
<path d="M24 15H21V18H24V15Z" fill="#A91F2F" fill-opacity="0.25"/>
<path d="M21 9H18V12H21V9Z" fill="#A91F2F" fill-opacity="0.5"/>
</g>
<defs>
<clipPath id="clip0_11396_21061">
<rect width="82" height="24" fill="white"/>
</clipPath>
</defs>
</svg>

<svg xmlns="http://www.w3.org/2000/svg" fill="none" viewBox="0 0 82 24">
  <g clip-path="url(#garnet_svg__a)">
    <path fill="#101112" d="M35.85 12.125h3.49v2.736a2.523 2.523 0 0 1-2.512 2.527H35.71c-1.382 0-2.513-1.145-2.513-2.527V10.13a2.511 2.511 0 0 1 2.513-2.513h1.117a2.502 2.502 0 0 1 2.512 2.513v.768h-1.396v-.768c0-.628-.488-1.117-1.116-1.117H35.71c-.628 0-1.117.503-1.117 1.117v4.732a1.12 1.12 0 0 0 1.117 1.117h1.117a1.12 1.12 0 0 0 1.116-1.117v-1.34H35.85v-1.396Zm7.114 5.263H41.57v-3.21l2.372-6.562h1.396l2.373 6.561v3.21h-1.395v-2.26h-3.35v2.26Zm.252-3.658h2.847l-1.41-3.908h-.027l-1.41 3.909Zm12.864 3.658h-1.535l-1.773-3.909h-1.438v3.909h-1.396V7.616h3.63a2.502 2.502 0 0 1 2.512 2.513v.838a2.492 2.492 0 0 1-1.828 2.415l1.828 4.006Zm-4.746-5.305h2.234c.628 0 1.117-.488 1.117-1.117v-.837c0-.628-.49-1.117-1.117-1.117h-2.234v3.071Zm11.72-4.467h1.397v9.772h-2.025L59.704 9.96v7.427H58.31V7.616h2.024l2.722 7.427V7.616Zm9.767 0v1.396h-4.746v2.555h4.187v1.396h-4.188v3.029h4.747v1.396h-6.142V7.616h6.142Zm2.228 0h6.142v1.396h-2.373v8.376h-1.396V9.012h-2.373V7.616Z"/>
    <path fill="#A91F2F" fill-opacity=".5" d="M6 3v3h3V3H6ZM3 3v3h3V3H3Z"/>
    <path fill="#A91F2F" d="M6 6v3h3V6H6Zm3 0v3h3V6H9Zm3 0v3h3V6h-3Zm3 0v3h3V6h-3ZM6 9v3h3V9H6Zm9 0v3h3V9h-3Zm-9 3v3h3v-3H6Zm9 0v3h3v-3h-3Zm-9 3v3h3v-3H6Zm9 0v3h3v-3h-3Zm-3 0v3h3v-3h-3Zm-3 0v3h3v-3H9Z"/>
    <path fill="#A91F2F" fill-opacity=".5" d="M3 6v3h3V6H3Zm9-3v3h3V3h-3Zm3 0v3h3V3h-3Zm3 0v3h3V3h-3ZM9 3v3h3V3H9Z"/>
    <path fill="#A91F2F" fill-opacity=".25" d="M6 24v-3h3v3H6ZM6 3V0h3v3H6Zm6 21v-3h3v3h-3Zm0-21V0h3v3h-3Z"/>
    <path fill="#A91F2F" fill-opacity=".5" d="M12 21v-3h3v3h-3Zm3 0v-3h3v3h-3Z"/>
    <path fill="#A91F2F" fill-opacity=".25" d="M9 24v-3h3v3H9ZM9 3V0h3v3H9Zm6 21v-3h3v3h-3Zm0-21V0h3v3h-3Z"/>
    <path fill="#A91F2F" fill-opacity=".5" d="M9 21v-3h3v3H9Zm-3 0v-3h3v3H6Z"/>
    <path fill="#A91F2F" fill-opacity=".25" d="M0 9h3v3H0V9Zm0-3h3v3H0V6Z"/>
    <path fill="#A91F2F" fill-opacity=".5" d="M3 12h3v3H3v-3Zm0 3h3v3H3v-3Zm0 3h3v3H3v-3Z"/>
    <path fill="#A91F2F" fill-opacity=".25" d="M0 12h3v3H0v-3Zm0 3h3v3H0v-3Z"/>
    <path fill="#A91F2F" fill-opacity=".5" d="M3 9h3v3H3V9Z"/>
    <path fill="#A91F2F" fill-opacity=".25" d="M24 6h-3v3h3V6Zm0 6h-3v3h3v-3Z"/>
    <path fill="#A91F2F" fill-opacity=".5" d="M21 6h-3v3h3V6Zm0 6h-3v3h3v-3Zm0 3h-3v3h3v-3Zm0 3h-3v3h3v-3Z"/>
    <path fill="#A91F2F" fill-opacity=".25" d="M24 9h-3v3h3V9Zm0 6h-3v3h3v-3Z"/>
    <path fill="#A91F2F" fill-opacity=".5" d="M21 9h-3v3h3V9Z"/>
  </g>
  <defs>
    <clipPath id="garnet_svg__a">
      <path fill="#fff" d="M0 0h82v24H0z"/>
    </clipPath>
  </defs>
</svg>
